X:239
%%etbk:tnset id:75,pos:1,rep:3x,ant:
%%etbk:tnset id:287,pos:1,rep:3x,ant:
%%etbk:wsite http://www.thesession.org/tunes/display/256
%%etbk:pldat 2016-08-18T18:31,2016-08-17T15:50,2016-08-16T15:47,2016-08-15T18:58,2016-08-12T16:09,2016-08-11T18:30,2016-08-10T15:44,2016-08-09T15:56,2016-08-08T18:23,2016-08-06T11:08,2016-07-07T15:45,2015-02-22T12:50,2015-01-29T18:54,2015-01-14T15:35,2015-01-13T17:32,2015-01-12T18:13,2015-01-08T17:49,2015-01-05T19:30,2014-12-07T11:23,2014-09-25T17:50,2014-05-06T17:01,2014-02-26T18:30,2014-02-08T13:59,2014-02-05T16:20,2014-02-04T18:51,2013-12-29T13:28,2013-12-18T16:57,2013-10-05T15:24,2013-05-15T15:30
T: Mist On The Mountain, The
Z: Piano Box Version by Martin Fleischmann
H: Created 2013-02-19 /  Last Modified 2013-02-19
M: 6/8
L: 1/8
R: jig
K: Ador
|: "am"!1!E!3!A!1!A !1!ABd | !5!e!1!A!3!A !3!AG!1!E | "G"!2!G!1!G!2!G !2!GA!4!B | !5!d!4!BA !2!G!1!E!2!D |
"am"!1!E!3!A!1!A !1!ABd  | !5!e!1!AA !2!B!3!^c!1!d | !2!ef!4!g !1!d!3!B!1!G| "em"{c}!3!BAG "am"!2!A3:|
|| "am"!4!a!3!g!2!e a2!5!b | !4!ag!2!e e!1!d!3!B | "G"!2!A!1!G!2!E !1!G2A | !3!BA!3!B !1!d!2!e!3!g |
"am"!4!a!3!g!2!e a2!5!b | !4!ag!2!e e!1!d!3!B | "G"!2!A!1!G!2!E !1!G2A | !3!BAG "am"!2!!1!A3 |
"am"!4!a!3!g!2!e a2!5!b | !4!ag!2!e e!1!d!3!B | "G"!2!A!1!G!2!E !1!G2A | !3!BAB !1!G!2!E!1!D |
!2!ED!2!E !1!G2A | !3!BAG !2!A!3!B!1!d | !2!ef!4!g !1!d!3!B!1!G | !3!BAG "am"!2!A3||


